X:100
T:Scotch Oats
M:C|
L:1/8
C:© Paul Gitlitz 1984
R:Reel
B:Giblitz Fancy, 141 Brand New Old Time Fiddle Tunes Vol. 2
N: For breakfast.
K:F
"F"~F2AF cFAF|~F2AF DFCD|~F2AF cFAF|"Bb"defd "C"c{d}cAG|!
"F"~F2AF cFAF|~F2AF DFCD|~F2AF cFAF|"Dm"defd "F"cF~F2|!
"F"fa (3aaa "C"gceg|"F"fa (3aaa "C"gabg|"F"fa (3aaa "C"gceg|cdef (3gfe bg|!
"F"fa (3aaa "C"gceg|"F"fa (3aaa "C"gabg|"F"fa (3aaa "C"gceg|c2bc acgc|]
